img/icons/exit.svg

<svg width="20" height="20" viewBox="0 0 20 20" fill="none" xmlns="http://www.w3.org/2000/svg">
<path d="M18.333 9.99996L14.1663 13.3333V10.8333L6.66634 10.8333V9.16663L14.1663 9.16663V6.66663L18.333 9.99996Z" fill="#111111"/>
<path d="M9.16542 2.49917C10.1508 2.49644 11.127 2.68927 12.0373 3.06648C12.9476 3.44369 13.7741 3.99779 14.4688 4.69667L13.2904 5.87501C12.1888 4.77334 10.7237 4.16584 9.16542 4.16584C7.60708 4.16584 6.14208 4.77334 5.04042 5.87501C3.93875 6.97667 3.33125 8.44167 3.33125 10C3.33125 11.5583 3.93875 13.0233 5.04042 14.125C6.14208 15.2267 7.60708 15.8342 9.16542 15.8342C10.7237 15.8342 12.1888 15.2267 13.2904 14.125L14.4688 15.3033C13.0529 16.72 11.1696 17.5008 9.16542 17.5008C7.16125 17.5008 5.27792 16.72 3.86208 15.3033C2.44542 13.8875 1.66458 12.0042 1.66458 10C1.66458 7.99584 2.44542 6.11251 3.86208 4.69667C4.55675 3.99779 5.3832 3.44369 6.29354 3.06648C7.20388 2.68927 8.18002 2.49644 9.16542 2.49917Z" fill="#111111"/>
</svg>

<svg width="20" height="20" fill="none" xmlns="http://www.w3.org/2000/svg"><path d="M18.333 10l-4.167 3.333v-2.5h-7.5V9.167h7.5v-2.5L18.333 10z" fill="#111"/><path d="M9.165 2.5a7.448 7.448 0 015.304 2.197L13.29 5.875a5.796 5.796 0 00-4.125-1.71 5.796 5.796 0 00-4.125 1.71A5.796 5.796 0 003.331 10c0 1.558.608 3.023 1.71 4.125a5.796 5.796 0 004.124 1.71 5.796 5.796 0 004.125-1.71l1.179 1.178a7.449 7.449 0 01-5.304 2.198 7.448 7.448 0 01-5.303-2.198A7.448 7.448 0 011.665 10c0-2.004.78-3.887 2.197-5.303a7.448 7.448 0 015.303-2.198z" fill="#111"/></svg>
